src/vs/editor/contrib/suggest/media/Class_inverse_16x.svg

<svg viewBox="0 0 16 16" xmlns="http://www.w3.org/2000/svg"><path d="m16 16h-16v-16h16z" fill="#2d2d30" opacity="0"/><path d="m16 6.586-3-3-1.414 1.414h-2.172l1-1-4-4h-.828l-5.586 5.586v.828l4 4 2.414-2.414h.586v5h1.586l3 3h.828l3.586-3.586v-.828l-2.086-2.086 2.086-2.086z" fill="#2d2d30"/><path d="m13 10 2 2-3 3-2-2 1-1h-3v-5h-2l-2 2-3-3 5-5 3 3-2 2h5l1-1 2 2-3 3-2-2 1-1h-2v4l2.999.002z" fill="#e8ab53"/></svg>

<svg xmlns="http://www.w3.org/2000/svg" viewBox="0 0 16 16"><style>.icon-canvas-transparent{opacity:0;fill:#2d2d30}.icon-vs-out{fill:#2d2d30}.icon-vs-action-orange{fill:#e8ab53}</style><path class="icon-canvas-transparent" d="M16 16H0V0h16v16z" id="canvas"/><path class="icon-vs-out" d="M16 6.586l-3-3L11.586 5H9.414l1-1-4-4h-.828L0 5.586v.828l4 4L6.414 8H7v5h1.586l3 3h.828L16 12.414v-.828L13.914 9.5 16 7.414v-.828z" id="outline"/><path class="icon-vs-action-orange" d="M13 10l2 2-3 3-2-2 1-1H8V7H6L4 9 1 6l5-5 3 3-2 2h5l1-1 2 2-3 3-2-2 1-1H9v4l2.999.002L13 10z" id="iconBg"/></svg>
